X: 201
T:Illumina oculos
N: Derived from Jos1702-Illumina_oculos.krn
C: Josquin des Prez
%%abc-version 2.0
%%abcx-abcm2ps-target-version 5.9.1 (29 Sep 2008)
%%abc-creator hum2abc beta
%%abcx-conversion-date 2019/02/12 16:15:48
%%abc-edited-by Jesse Rodin
%%abc-edited-by Jesse Rodin (8/15/2012)
%%abcx-initial-encoding-date 2012/08/15/
%%humdrum-veritas 2241846358
%%humdrum-veritas-data 1992586788
%%linebreak <none>
%%barnumbers 0
L: 1/4
M: 3/1
Q: 1/2=120
%%staves [1 2 3 4]
V: 1 clef=treble
V: 2 clef=treble-8
V: 3 clef=treble-8
V: 4 clef=bass
K: F
[V:1] z12 | 
[V:2] z4c8 | 
[V:3] z4z4F4- | 
[V:4] C,8F,4- | 
[V:1] F8B4- | 
[V:2] f6d2d4 | 
[V:3] F4B6G2 | 
[V:4] F,2D,2D,4z2G,2- | 
[V:1] B2G2G4z2c2- | 
[V:2] z2g4g2e4- | 
[V:3] G4z2c4c2 | 
[V:4] G,2G,2E,6C,2 | 
[V:1] c2c2A6F2 | 
[V:2] e2c2c4z2c2 | 
[V:3] A6F2F4 | 
[V:4] C,4z2C,2F,4- | 
[V:1] F4z2F2B4- | 
[V:2] f6d2d2g2 | 
[V:3] z2F2B6G2 | 
[V:4] F,2D,2D,2G,2G,F,E,D, | 
[V:1] B2G2G2c2cBAG | 
[V:2] gfedc4z2c2 | 
[V:3] G2c2cBAGF4 | 
[V:4] C,4z2C,2D,2F,2- | 
[V:1] F4z2F4D2- | 
[V:2] A3Bc2d2A2d2- | 
[V:3] z2F2G2B2A2B2- | 
[V:4] F,2E,D,E,2D,4G,,2 | 
[V:1] D2G4^F2G4 | 
[V:2] d2c2d4z2B2 | 
[V:3] B2AGA4G4- | 
[V:4] G,2_E,2D,4z2G,,2 | 
[V:1] z2G2B2B2B2AG | 
[V:2] _e4d4B3c | 
[V:3] G4z2D2G2G2 | 
[V:4] C,2C,2B,,2B,,2_E,4 | 
[V:1] A2F2G4z2F2 | 
[V:2] d4z2d2e2d2 | 
[V:3] F2F2B4A4 | 
[V:4] D,4z2B,,2C,2D,2 | 
[V:1] G2A2B2A3GG2- | 
[V:2] G2d2B3cd2_e2 | 
[V:3] z2F2G2A2B4 | 
[V:4] _E,2D,2G,,2D,2G,,A,,B,,C, | 
[V:1] G2^F2G8- | 
[V:2] d4B2_e4dc | 
[V:3] A4G8 | 
[V:4] D,4_E,2C,4B,,A,, | 
[V:1] G12 | 
[V:2] B2c2B8- | 
[V:3] z4G4B4- | 
[V:4] G,,2C,2_E,6E,2 | 
[V:1] z4z4z4 | 
[V:2] B4z4z4 | 
[V:3] B2B2A2F2G3A | 
[V:4] D,2B,,2C,2D,2_E,4 | 
[V:1] z4z2A4G2 | 
[V:2] z4z4z4 | 
[V:3] B4A4z2c2- | 
[V:4] D,4z2F,4E,2 | 
[V:1] E2F2G2C2F2D2 | 
[V:2] z2B4c2[M:3/1](3d3Bd2 | 
[V:3] c2B2G2A2B4 | 
[V:4] C,2D,2_E,4D,2B,,2 | 
[V:1] E2F3ED4^C2 | 
[V:2] (3:2:6c3Ac2B3GB2[M:3/1]A4 | 
[V:3] A3GF2G2E4 | 
[V:4] C,2A,,2B,,2G,,2A,,4 | 
[V:1] D2F2E2D2E4 | 
[V:2] F3GA2B4A2 | 
[V:3] D4z2d4c2 | 
[V:4] D,4C,2B,,2C,4 | 
[V:1] D3EF2G4^F2 | 
[V:2] B4z2c2d4 | 
[V:3] d3cB2G2A4 | 
[V:4] B,,3C,D,2_E,2D,4 | 
[V:1] G4z4z4 | 
[V:2] B4c4d2B2- | 
[V:3] G4z4z4 | 
[V:4] G,,2G,2A,4F,2G,2 | 
[V:1] z12 | 
[V:2] B2c4d4B2- | 
[V:3] z12 | 
[V:4] G,2A,2A,2F,4G,2- | 
[V:1] z12 | 
[V:2] B2c4d3c_e2- | 
[V:3] z12 | 
[V:4] G,2A,4F,4G,2- | 
[V:1] z4z4z2D2 | 
[V:2] edd4c2d4- | 
[V:3] z4z2G2B2B2 | 
[V:4] G,F,_E,D,E,4D,4- | 
[V:1] F2F2E2E2G3G | 
[V:2] d4z2c2_e2_e2 | 
[V:3] A2A2c3cG2c2 | 
[V:4] D,4z4z2C,2 | 
[V:1] D2G2F2D2F4 | 
[V:2] d2B3cdBc4 | 
[V:3] B2G2B4A4 | 
[V:4] D,2_E,2D,4z2A,,2- | 
[V:1] E4D2G4^F2 | 
[V:2] B2G2B4A4 | 
[V:3] G4z2d2c2A2 | 
[V:4] A,,B,,C,2D,2B,,2C,2D,2 | 
[V:1] G2D2F3GA2F2 | 
[V:2] G4A3Bc2d2- | 
[V:3] B4A4z2A2 | 
[V:4] G,,2G,2F,2D,2F,4 | 
[V:1] G4F2D2F4 | 
[V:2] d2c2d4c2A2 | 
[V:3] G4B4A2F2 | 
[V:4] _E,4D,4z2D,2 | 
[V:1] E4z2E2F2D2 | 
[V:2] c3B/A/G4z2d2 | 
[V:3] G2A2B2G2A2B2 | 
[V:4] C,4_E,4D,2B,,2 | 
[V:1] E2F2G4E2F2 | 
[V:2] c2A2B2G2A2c2 | 
[V:3] AGFED2G4F2 | 
[V:4] C,2D,2B,,2C,2A,,4 | 
[V:1] D2E4A4G2 | 
[V:2] B4G2A2B4 | 
[V:3] G4z4G4 | 
[V:4] G,,2G,4F,2G,4 | 
[V:1] A4z4z4 | 
[V:2] A4z4z4 | 
[V:3] F2F2B4A2F2 | 
[V:4] D,2F,2B,,C,D,E,F,2D,2 | 
[V:1] z2A3GFED2FG | 
[V:2] z2A6B2G2 | 
[V:3] G2A2D4z2d2 | 
[V:4] E,2F,3E,D,C,B,,2B,2 | 
[V:1] ABc4BAG4 | 
[V:2] A3BcAd2G4 | 
[V:3] c2f3ed4^c2 | 
[V:4] A,3G,F,2G,2E,4 | 
[V:1] F2A2A2A2F2F2 | 
[V:2] AFf2f2f2d4 | 
[V:3] d4z2d2d2d2 | 
[V:4] D,4z2D,2D,2D,2 | 
[V:1] B4G2G2A4 | 
[V:2] z2G2c2c2A2A2 | 
[V:3] B2B2_e4c2c2 | 
[V:4] G,4C,4F,4 | 
[V:1] D2F2GFEDC4 | 
[V:2] B4G2G2A4 | 
[V:3] d4G2c2cBAG | 
[V:4] D,2D,2E,4A,,2A,2 | 
[V:1] z2DEFGA2B2G2 | 
[V:2] D2d2dcBAG4 | 
[V:3] F2f2fedcB2_e2 | 
[V:4] A,G,F,E,D,4z2G,2 | 
[V:1] AGFED2G4^F2 | 
[V:2] z2d4_e2d4 | 
[V:3] d3cB2c2A4 | 
[V:4] D,4G,2C,2D,4 | 
[V:1] G4z2G4G2- | 
[V:2] z2G2B2c2_e4 | 
[V:3] G4z2G2B2c2 | 
[V:4] _E,4E,4E,2C,2- | 
[V:1] G2G2B4A4 | 
[V:2] c4d2D2F3G | 
[V:3] _e4d4z2D2 | 
[V:4] C,B,,C,2G,,4z4 | 
[V:1] z2D2D2D2F4 | 
[V:2] A2B2G4A3B | 
[V:3] F2G2B4A4 | 
[V:4] z2G,3F,G,2D,4 | 
[V:1] E4z4z2G2- | 
[V:2] c4z4z2G2 | 
[V:3] z4z2G2B2c2 | 
[V:4] A,4z2G,4C,2- | 
[V:1] G2G4G2G4 | 
[V:2] c3d_e4B2G2 | 
[V:3] _e6dcB2c2 | 
[V:4] C,2C,4C,2_E,4 | 
[V:1] A2B2A2B4B2- | 
[V:2] z4z4z2G2- | 
[V:3] d12- | 
[V:4] D,4z2G,2B,3A, | 
[V:1] B2AGF8- | 
[V:2] GABcdefd2c/B/AB | 
[V:3] d12- | 
[V:4] G,2F,E,D,8- | 
[V:1] F12 ||  
[V:2] A12 ||  
[V:3] d12 ||  
[V:4] D,12 ||  
[V:1]  [K:F] [K:clef=treble][M:2/1]z8 | 
[V:2]  [K:F] [K:clef=treble-8][M:2/1]z8 | 
[V:3]  [K:F] [K:clef=treble-8][M:2/1]z4A4 | 
[V:4]  [K:F] [K:clef=bass][M:2/1]D,4D,4 | 
[V:1] z8 | 
[V:2] z8 | 
[V:3] A4A2c2- | 
[V:4] D,2F,4C,2- | 
[V:1] z8 | 
[V:2] z8 | 
[V:3] c2G4G2 | 
[V:4] C,2C,2_E,4 | 
[V:1] z8 | 
[V:2] z8 | 
[V:3] B4A4- | 
[V:4] D,8 | 
[V:1] z8 | 
[V:2] z8 | 
[V:3] A4z2G2 | 
[V:4] z2C,2_E,3E, | 
[V:1] z8 | 
[V:2] z8 | 
[V:3] B3BA2F2 | 
[V:4] D,2B,,2C,2D,2 | 
[V:1] z8 | 
[V:2] z8 | 
[V:3] G2A2F2D2- | 
[V:4] B,,2C,2D,2G,,2- | 
[V:1] z8 | 
[V:2] z8 | 
[V:3] D2d2c2f2- | 
[V:4] G,,A,,B,,2C,2D,2 | 
[V:1] z8 | 
[V:2] z8 | 
[V:3] fed4^c2 | 
[V:4] E,2F,2G,2A,2 | 
[V:1] A4A2A2- | 
[V:2] z4A3A | 
[V:3] d2A3AA2 | 
[V:4] D,8 | 
[V:1] A2A4c2- | 
[V:2] A2A2c3c | 
[V:3] A2c3cF2 | 
[V:4] z8 | 
[V:1] ccF4F2- | 
[V:2] F2F3GA2- | 
[V:3] F3GA3G | 
[V:4] z4z2D,2- | 
[V:1] FGA3GFE | 
[V:2] AGFED2d2- | 
[V:3] FED2d3e | 
[V:4] D,E,F,3E,D,C, | 
[V:1] D2D3EF2 | 
[V:2] def3edc | 
[V:3] f3edcB2- | 
[V:4] B,,2B,4B,2 | 
[V:1] G2E2F2D2 | 
[V:2] d2A2c2B2 | 
[V:3] B2A4G2 | 
[V:4] G,2A,2F,2G,2 | 
[V:1] A2F2G4 | 
[V:2] A2d4^c2 | 
[V:3] A4z4 | 
[V:4] D,2F,2E,4 | 
[V:1] F4z2F2- | 
[V:2] d4z4 | 
[V:3] z8 | 
[V:4] D,8 | 
[V:1] F2G2A2F2 | 
[V:2] B4c2d2 | 
[V:3] z8 | 
[V:4] z8 | 
[V:1] G2A2D2B2- | 
[V:2] B2c2d2G2 | 
[V:3] z8 | 
[V:4] z8 | 
[V:1] BAGFE4 | 
[V:2] _e3dc3B/A/ | 
[V:3] z8 | 
[V:4] z8 | 
[V:1] D2G4^F2 | 
[V:2] G2B2A4 | 
[V:3] z8 | 
[V:4] B,,4C,2D,2 | 
[V:1] G4z2G2- | 
[V:2] G4z2G2- | 
[V:3] z8 | 
[V:4] B,,2C,2D,2G,,2 | 
[V:1] G2G2ABcA | 
[V:2] GAB2cdec | 
[V:3] z8 | 
[V:4] _E,3D,C,B,,A,,2 | 
[V:1] B3AGFE2 | 
[V:2] d3cBAG2 | 
[V:3] D6E2 | 
[V:4] G,,3A,,B,,2C,2 | 
[V:1] D2G2F2D2 | 
[V:2] B2c4B2 | 
[V:3] F2G2A2B2 | 
[V:4] D,2E,2F,2B,,2 | 
[V:1] G4z2F2 | 
[V:2] G4A4 | 
[V:3] c4F4 | 
[V:4] _E,4D,3C, | 
[V:1] G2B2AGFE | 
[V:2] G4z2A2 | 
[V:3] z4z2F2 | 
[V:4] B,,2C,2A,,4 | 
[V:1] D2G2F3G | 
[V:2] B2d2cBAG | 
[V:3] G2B2AGFE | 
[V:4] G,,4z4 | 
[V:1] A2B2c4 | 
[V:2] F2G2A4 | 
[V:3] D2G4^F2 | 
[V:4] z2G,,2C,3D, | 
[V:1] B4z2G2 | 
[V:2] G3AB2c2 | 
[V:3] G4D2G2 | 
[V:4] _E,3D,/C,/B,,2E,2 | 
[V:1] F2D2G2F2 | 
[V:2] d2d2_e3d | 
[V:3] A2B3AF2 | 
[V:4] D,2B,,2C,2D,2 | 
[V:1] B2G2A2F2 | 
[V:2] B2d2c2B2 | 
[V:3] G2B2A2D2 | 
[V:4] G,,4C,2D,2 | 
[V:1] G3FD2F2 | 
[V:2] GABcd2B2 | 
[V:3] B8 | 
[V:4] _E,3D,B,,2D,2 | 
[V:1] E4D4 | 
[V:2] c4B2G2- | 
[V:3] G8 | 
[V:4] C,3B,,G,,2B,,2 | 
[V:1] z4B4- | 
[V:2] G2^F2G4 | 
[V:3] A4D4 | 
[V:4] A,,4G,,4 | 
[V:1] B4G4 | 
[V:2] _e8 | 
[V:3] G8 | 
[V:4] z4C,4- | 
[V:1] A4D4 | 
[V:2] c4d4 | 
[V:3] E4F2D2 | 
[V:4] C,4B,,4 | 
[V:1] G4B4- | 
[V:2] G4d4- | 
[V:3] E4D4 | 
[V:4] C,4G,,4 | 
[V:1] B2A2G4 | 
[V:2] d4c4 | 
[V:3] G8 | 
[V:4] _E,8 | 
[V:1] G4^F4 | 
[V:2] _e4d4 | 
[V:3] C4F4 | 
[V:4] C,4D,4 | 
[V:1] [M:3/1]G12 | 
[V:2] [M:3/1]B8z4 | 
[V:3] [M:3/1]D12 | 
[V:4] [M:3/1]G,,8z4 | 
[V:1] z4z4G4- | 
[V:2] e6e2e4 | 
[V:3] z4z4G4- | 
[V:4] C,6C,2C,4 | 
[V:1] G2G2G4B4 | 
[V:2] e4d4G4- | 
[V:3] G2G2G4G4 | 
[V:4] C,4B,,4_E,4- | 
[V:1] A4D6E2 | 
[V:2] G2A2B4d4 | 
[V:3] F4B6A2 | 
[V:4] E,2D,2D,4z4 | 
[V:1] F4A4A4 | 
[V:2] d4d4d4 | 
[V:3] A4z4A4 | 
[V:4] D,4D,4D,4 | 
[V:1] A4A4A4 | 
[V:2] d4f8 | 
[V:3] A4A4A4 | 
[V:4] D,4D,4F,4- | 
[V:1] c8G4- | 
[V:2] c4e6d2 | 
[V:3] A4c8 | 
[V:4] F,4C,8 | 
[V:1] G4B2A2G2F2 | 
[V:2] c4B4d4- | 
[V:3] G8B4- | 
[V:4] _E,8D,4 | 
[V:1] E2D2E4F4 | 
[V:2] d4c4A4 | 
[V:3] B4A4F4 | 
[V:4] B,,4C,4D,4 | 
[V:1] D2E2F2G2A4- | 
[V:2] B4A8 | 
[V:3] G4A2D2A4 | 
[V:4] G,,4D,4F,4- | 
[V:1] A2G2E2F2G4- | 
[V:2] z12 | 
[V:3] c6B2G2A2 | 
[V:4] F,2_E,2C,2D,2E,4- | 
[V:1] G2F2D2E2F4- | 
[V:2] z12 | 
[V:3] B6A2F2G2 | 
[V:4] E,2D,2B,,2C,2D,2=E,2 | 
[V:1] F2G2A6GF | 
[V:2] A6B2c2B2 | 
[V:3] A2B2c4C2D2 | 
[V:4] F,4F,,2G,,2A,,2B,,2 | 
[V:1] E2D2G6F2 | 
[V:2] G8G4 | 
[V:3] E2F2G2A2B4 | 
[V:4] C,2D,2_E,6D,2 | 
[V:1] F8E4 | 
[V:2] A4B4c4 | 
[V:3] A4G8 | 
[V:4] D,8C,4 | 
[V:1] [M:2/1]F8 | 
[V:2] [M:2/1]A8 | 
[V:3] [M:2/1]F8 | 
[V:4] [M:2/1]D,4z4 | 
[V:1] z8 | 
[V:2] G4z4 | 
[V:3] z4D4 | 
[V:4] G,,4D,4 | 
[V:1] z8 | 
[V:2] z8 | 
[V:3] A4A2A2- | 
[V:4] D,2D,4D,2 | 
[V:1] z8 | 
[V:2] z8 | 
[V:3] A2A2G2A2 | 
[V:4] C,2D,2G,,2D,2 | 
[V:1] z8 | 
[V:2] z8 | 
[V:3] D2A2A2A2 | 
[V:4] D,2D,2F,4- | 
[V:1] z8 | 
[V:2] z4G4 | 
[V:3] c6G2 | 
[V:4] F,2C,2_E,4 | 
[V:1] D4A4 | 
[V:2] d4d2d2- | 
[V:3] B4A4- | 
[V:4] D,8 | 
[V:1] A2A4A2 | 
[V:2] d2d2c2d2 | 
[V:3] A4z4 | 
[V:4] z8 | 
[V:1] G2A2D2A2 | 
[V:2] G2d2d2d2 | 
[V:3] z8 | 
[V:4] z8 | 
[V:1] A2A2c4- | 
[V:2] f6c2 | 
[V:3] z4z4 | 
[V:4] z8 | 
[V:1] c2G2B4 | 
[V:2] _e4d4- | 
[V:3] z8 | 
[V:4] z8 | 
[V:1] A4z4 | 
[V:2] d4z4 | 
[V:3] z4z4 | 
[V:4] z8 | 
[V:1] A6A2 | 
[V:2] f6f2 | 
[V:3] A6A2 | 
[V:4] D,6D,2 | 
[V:1] A4B4- | 
[V:2] f4d4- | 
[V:3] F4B4- | 
[V:4] D,4G,,4- | 
[V:1] B2AGF4- | 
[V:2] d4d4- | 
[V:3] B4A4- | 
[V:4] G,,4D,4- | 
[V:1] F4z2c2- | 
[V:2] d4z4 | 
[V:3] A4z2A2- | 
[V:4] D,4z4 | 
[V:1] c2c2A2A2 | 
[V:2] z2f4f2 | 
[V:3] A2A2F2F2 | 
[V:4] z2D,4D,2 | 
[V:1] d3dB2G2 | 
[V:2] d2d2g3g | 
[V:3] B3BG2G2 | 
[V:4] B,,2B,,2_E,3E, | 
[V:1] c3cA2A2 | 
[V:2] e2c2f3f | 
[V:3] A3AD2d2 | 
[V:4] C,2C,2D,3D, | 
[V:1] dcBAG4 | 
[V:2] d2g2g2g2 | 
[V:3] d2d2dcBA | 
[V:4] G,,4z2G,2 | 
[V:1] z2G4c2 | 
[V:2] gfedc4 | 
[V:3] G4z4 | 
[V:4] G,3G,E,2A,2 | 
[V:1] c2c3BAG | 
[V:2] A3Bc2d2 | 
[V:3] z8 | 
[V:4] A,2A,2A,G,F,E, | 
[V:1] F2A2G4 | 
[V:2] A2d4c2 | 
[V:3] z4z4 | 
[V:4] D,2F,2E,4 | 
[V:1] F8- | 
[V:2] d2f3ed2- | 
[V:3] d4f4- | 
[V:4] D,8- | 
[V:1] F8- | 
[V:2] d2c2B2A2 | 
[V:3] f2e2d2c2 | 
[V:4] D,8- | 
[V:1] F8 | 
[V:2] d8 | 
[V:3] B4B4 | 
[V:4] D,8 | 
[V:1] A4c4- | 
[V:2] c8- | 
[V:3] A8- | 
[V:4] z4A,4 | 
[V:1] c2B2A3G | 
[V:2] c8- | 
[V:3] A8- | 
[V:4] C6B,2 | 
[V:1] F2E2D2C2 | 
[V:2] c8 | 
[V:3] A8- | 
[V:4] A,3G,F,2E,2 | 
[V:1] F6ED | 
[V:2] A6B2 | 
[V:3] A8- | 
[V:4] D,8 | 
[V:1] E8 |]  
[V:2] c8 |]  
[V:3] A8 |]  
[V:4] A,,8 |]  



